X: 01049
T: HAROLD'S TUNE
C: Bob McQuillen Nov'75
B: Bob's Note Book 1 #49
%R: reel
Z: 2019 John Chambers <jc:trillian.mit.edu>
M: C
L: 1/8
K: D
de \
| fefg fedB | A2d2 d2ef | e2e2 e2de | fdBd A2de |\
| fefg fedB | A2d2 d2ef | edeg fedc | d6 :|
|: fg \
| a2a2 afga | b2g2 g2ef | gagf gefg | a2f2 f2de |\
| fdfa bagf | g2e2 egfg | afdf gedc | d6 :|
%%begintext align
%% For Harold Forsythe of Perkins
%% School, a fellow piano player.
%%endtext

%%sep 1 1 500

%%sep 1 1 500

